Simply-Red-Circles/scalable/apps/pocket.svg

<svg xmlns="http://www.w3.org/2000/svg" width="48" height="48" viewBox="0 0 12.7 12.7"><path d="M6.34.07a6.29 6.29 0 0 0-6.29 6.3 6.29 6.29 0 0 0 6.3 6.28 6.29 6.29 0 0 0 6.28-6.29A6.29 6.29 0 0 0 6.34.07zm-.01.94a5.4 5.4 0 0 1 5.4 5.4 5.4 5.4 0 0 1-5.4 5.41 5.4 5.4 0 0 1-5.41-5.4A5.4 5.4 0 0 1 6.32 1zM3.45 3.3c-.44 0-.8.4-.8.89 0 3.62.6 6.12 3.7 6.1 3.1-.01 3.7-2.48 3.7-6.1 0-.5-.36-.89-.8-.89h-5.8zm1.2 2c.12 0 .25.05.35.15l1.35 1.48L7.7 5.46c.1-.1.23-.16.35-.16.13 0 .26.06.36.16.2.22.2.56 0 .78L6.74 8.06a.47.47 0 0 1-.39.15.47.47 0 0 1-.39-.15L4.29 6.24a.58.58 0 0 1 0-.78c.1-.1.23-.16.35-.16z" fill="#a02c2c"/></svg>

<?xml version="1.0" encoding="UTF-8" standalone="no"?>
<svg
   xmlns:dc="http://purl.org/dc/elements/1.1/"
   xmlns:cc="http://creativecommons.org/ns#"
   xmlns:rdf="http://www.w3.org/1999/02/22-rdf-syntax-ns#"
   xmlns:svg="http://www.w3.org/2000/svg"
   xmlns="http://www.w3.org/2000/svg"
   xmlns:sodipodi="http://sodipodi.sourceforge.net/DTD/sodipodi-0.dtd"
   xmlns:inkscape="http://www.inkscape.org/namespaces/inkscape"
   width="48"
   height="48"
   viewBox="0 0 12.7 12.7"
   version="1.1"
   id="svg4"
   sodipodi:docname="pocket.svg"
   inkscape:version="0.92.4 (5da689c313, 2019-01-14)">
  <metadata
     id="metadata10">
    <rdf:RDF>
      <cc:Work
         rdf:about="">
        <dc:format>image/svg+xml</dc:format>
        <dc:type
           rdf:resource="http://purl.org/dc/dcmitype/StillImage" />
        <dc:title></dc:title>
      </cc:Work>
    </rdf:RDF>
  </metadata>
  <defs
     id="defs8" />
  <sodipodi:namedview
     pagecolor="#ffffff"
     bordercolor="#666666"
     borderopacity="1"
     objecttolerance="10"
     gridtolerance="10"
     guidetolerance="10"
     inkscape:pageopacity="0"
     inkscape:pageshadow="2"
     inkscape:window-width="1087"
     inkscape:window-height="480"
     id="namedview6"
     showgrid="false"
     inkscape:zoom="4.9166667"
     inkscape:cx="2.1355932"
     inkscape:cy="24"
     inkscape:window-x="0"
     inkscape:window-y="25"
     inkscape:window-maximized="0"
     inkscape:current-layer="svg4" />
  <path
     d="M 6.34,0.07 A 6.29,6.29 0 0 0 0.05,6.37 6.29,6.29 0 0 0 6.35,12.65 6.29,6.29 0 0 0 12.63,6.36 6.29,6.29 0 0 0 6.34,0.07 Z M 6.33,1.01 a 5.4,5.4 0 0 1 5.4,5.4 5.4,5.4 0 0 1 -5.4,5.41 A 5.4,5.4 0 0 1 0.92,6.42 5.4,5.4 0 0 1 6.32,1 Z M 3.45,3.3 c -0.44,0 -0.8,0.4 -0.8,0.89 0,3.62 0.6,6.12 3.7,6.1 3.1,-0.01 3.7,-2.48 3.7,-6.1 0,-0.5 -0.36,-0.89 -0.8,-0.89 z m 1.2,2 C 4.77,5.3 4.9,5.35 5,5.45 L 6.35,6.93 7.7,5.46 C 7.8,5.36 7.93,5.3 8.05,5.3 c 0.13,0 0.26,0.06 0.36,0.16 0.2,0.22 0.2,0.56 0,0.78 L 6.74,8.06 A 0.47,0.47 0 0 1 6.35,8.21 0.47,0.47 0 0 1 5.96,8.06 L 4.29,6.24 a 0.58,0.58 0 0 1 0,-0.78 C 4.39,5.36 4.52,5.3 4.64,5.3 Z"
     id="path2"
     inkscape:connector-curvature="0"
     style="fill:#a02c2c" />
</svg>
